static/elearning-platform/icons/team-specialists.svg

<svg width="189" height="93" viewBox="0 0 189 93" fill="none" xmlns="http://www.w3.org/2000/svg">
<path d="M8.02344 83.6367C8.02344 83.0508 7.80078 82.5977 7.35547 82.2773C6.91797 81.9492 6.14844 81.668 5.04688 81.4336C3.95312 81.1992 3.08203 80.918 2.43359 80.5898C1.79297 80.2617 1.31641 79.8711 1.00391 79.418C0.699219 78.9648 0.546875 78.4258 0.546875 77.8008C0.546875 76.7617 0.984375 75.8828 1.85938 75.1641C2.74219 74.4453 3.86719 74.0859 5.23438 74.0859C6.67188 74.0859 7.83594 74.457 8.72656 75.1992C9.625 75.9414 10.0742 76.8906 10.0742 78.0469H7.89453C7.89453 77.4531 7.64062 76.9414 7.13281 76.5117C6.63281 76.082 6 75.8672 5.23438 75.8672C4.44531 75.8672 3.82812 76.0391 3.38281 76.3828C2.9375 76.7266 2.71484 77.1758 2.71484 77.7305C2.71484 78.2539 2.92188 78.6484 3.33594 78.9141C3.75 79.1797 4.49609 79.4336 5.57422 79.6758C6.66016 79.918 7.53906 80.207 8.21094 80.543C8.88281 80.8789 9.37891 81.2852 9.69922 81.7617C10.0273 82.2305 10.1914 82.8047 10.1914 83.4844C10.1914 84.6172 9.73828 85.5273 8.83203 86.2148C7.92578 86.8945 6.75 87.2344 5.30469 87.2344C4.28906 87.2344 3.39062 87.0547 2.60938 86.6953C1.82812 86.3359 1.21484 85.8359 0.769531 85.1953C0.332031 84.5469 0.113281 83.8477 0.113281 83.0977H2.28125C2.32031 83.8242 2.60938 84.4023 3.14844 84.832C3.69531 85.2539 4.41406 85.4648 5.30469 85.4648C6.125 85.4648 6.78125 85.3008 7.27344 84.9727C7.77344 84.6367 8.02344 84.1914 8.02344 83.6367Z" fill="#18191B"/>
<path d="M23.7266 80.8008C23.7266 82.7305 23.2852 84.2852 22.4023 85.4648C21.5195 86.6445 20.3242 87.2344 18.8164 87.2344C17.2773 87.2344 16.0664 86.7461 15.1836 85.7695V91.875H13.0156V74.3203H14.9961L15.1016 75.7266C15.9844 74.6328 17.2109 74.0859 18.7812 74.0859C20.3047 74.0859 21.5078 74.6602 22.3906 75.8086C23.2812 76.957 23.7266 78.5547 23.7266 80.6016V80.8008ZM21.5586 80.5547C21.5586 79.125 21.2539 77.9961 20.6445 77.168C20.0352 76.3398 19.1992 75.9258 18.1367 75.9258C16.8242 75.9258 15.8398 76.5078 15.1836 77.6719V83.7305C15.832 84.8867 16.8242 85.4648 18.1602 85.4648C19.1992 85.4648 20.0234 85.0547 20.6328 84.2344C21.25 83.4062 21.5586 82.1797 21.5586 80.5547Z" fill="#18191B"/>
<path d="M31.7539 87.2344C30.0352 87.2344 28.6367 86.6719 27.5586 85.5469C26.4805 84.4141 25.9414 82.9023 25.9414 81.0117V80.6133C25.9414 79.3555 26.1797 78.2344 26.6562 77.25C27.1406 76.2578 27.8125 75.4844 28.6719 74.9297C29.5391 74.3672 30.4766 74.0859 31.4844 74.0859C33.1328 74.0859 34.4141 74.6289 35.3281 75.7148C36.2422 76.8008 36.6992 78.3555 36.6992 80.3789V81.2812H28.1094C28.1406 82.5312 28.5039 83.543 29.1992 84.3164C29.9023 85.082 30.793 85.4648 31.8711 85.4648C32.6367 85.4648 33.2852 85.3086 33.8164 84.9961C34.3477 84.6836 34.8125 84.2695 35.2109 83.7539L36.5352 84.7852C35.4727 86.418 33.8789 87.2344 31.7539 87.2344ZM31.4844 75.8672C30.6094 75.8672 29.875 76.1875 29.2812 76.8281C28.6875 77.4609 28.3203 78.3516 28.1797 79.5H34.5312V79.3359C34.4688 78.2344 34.1719 77.3828 33.6406 76.7812C33.1094 76.1719 32.3906 75.8672 31.4844 75.8672Z" fill="#18191B"/>
<path d="M44.3047 85.4648C45.0781 85.4648 45.7539 85.2305 46.332 84.7617C46.9102 84.293 47.2305 83.707 47.293 83.0039H49.3438C49.3047 83.7305 49.0547 84.4219 48.5938 85.0781C48.1328 85.7344 47.5156 86.2578 46.7422 86.6484C45.9766 87.0391 45.1641 87.2344 44.3047 87.2344C42.5781 87.2344 41.2031 86.6602 40.1797 85.5117C39.1641 84.3555 38.6562 82.7773 38.6562 80.7773V80.4141C38.6562 79.1797 38.8828 78.082 39.3359 77.1211C39.7891 76.1602 40.4375 75.4141 41.2812 74.8828C42.1328 74.3516 43.1367 74.0859 44.293 74.0859C45.7148 74.0859 46.8945 74.5117 47.832 75.3633C48.7773 76.2148 49.2812 77.3203 49.3438 78.6797H47.293C47.2305 77.8594 46.918 77.1875 46.3555 76.6641C45.8008 76.1328 45.1133 75.8672 44.293 75.8672C43.1914 75.8672 42.3359 76.2656 41.7266 77.0625C41.125 77.8516 40.8242 78.9961 40.8242 80.4961V80.9062C40.8242 82.3672 41.125 83.4922 41.7266 84.2812C42.3281 85.0703 43.1875 85.4648 44.3047 85.4648Z" fill="#18191B"/>
<path d="M54.1367 87H51.9688V74.3203H54.1367V87ZM51.793 70.957C51.793 70.6055 51.8984 70.3086 52.1094 70.0664C52.3281 69.8242 52.6484 69.7031 53.0703 69.7031C53.4922 69.7031 53.8125 69.8242 54.0312 70.0664C54.25 70.3086 54.3594 70.6055 54.3594 70.957C54.3594 71.3086 54.25 71.6016 54.0312 71.8359C53.8125 72.0703 53.4922 72.1875 53.0703 72.1875C52.6484 72.1875 52.3281 72.0703 52.1094 71.8359C51.8984 71.6016 51.793 71.3086 51.793 70.957Z" fill="#18191B"/>
<path d="M65.4453 87C65.3203 86.75 65.2188 86.3047 65.1406 85.6641C64.1328 86.7109 62.9297 87.2344 61.5312 87.2344C60.2812 87.2344 59.2539 86.8828 58.4492 86.1797C57.6523 85.4688 57.2539 84.5703 57.2539 83.4844C57.2539 82.1641 57.7539 81.1406 58.7539 80.4141C59.7617 79.6797 61.1758 79.3125 62.9961 79.3125H65.1055V78.3164C65.1055 77.5586 64.8789 76.957 64.4258 76.5117C63.9727 76.0586 63.3047 75.832 62.4219 75.832C61.6484 75.832 61 76.0273 60.4766 76.418C59.9531 76.8086 59.6914 77.2812 59.6914 77.8359H57.5117C57.5117 77.2031 57.7344 76.5938 58.1797 76.0078C58.6328 75.4141 59.2422 74.9453 60.0078 74.6016C60.7812 74.2578 61.6289 74.0859 62.5508 74.0859C64.0117 74.0859 65.1562 74.4531 65.9844 75.1875C66.8125 75.9141 67.2422 76.918 67.2734 78.1992V84.0352C67.2734 85.1992 67.4219 86.125 67.7188 86.8125V87H65.4453ZM61.8477 85.3477C62.5273 85.3477 63.1719 85.1719 63.7812 84.8203C64.3906 84.4688 64.832 84.0117 65.1055 83.4492V80.8477H63.4062C60.75 80.8477 59.4219 81.625 59.4219 83.1797C59.4219 83.8594 59.6484 84.3906 60.1016 84.7734C60.5547 85.1562 61.1367 85.3477 61.8477 85.3477Z" fill="#18191B"/>
<path d="M73.0273 87H70.8594V69H73.0273V87Z" fill="#18191B"/>
<path d="M78.8633 87H76.6953V74.3203H78.8633V87ZM76.5195 70.957C76.5195 70.6055 76.625 70.3086 76.8359 70.0664C77.0547 69.8242 77.375 69.7031 77.7969 69.7031C78.2188 69.7031 78.5391 69.8242 78.7578 70.0664C78.9766 70.3086 79.0859 70.6055 79.0859 70.957C79.0859 71.3086 78.9766 71.6016 78.7578 71.8359C78.5391 72.0703 78.2188 72.1875 77.7969 72.1875C77.375 72.1875 77.0547 72.0703 76.8359 71.8359C76.625 71.6016 76.5195 71.3086 76.5195 70.957Z" fill="#18191B"/>
<path d="M89.7266 83.6367C89.7266 83.0508 89.5039 82.5977 89.0586 82.2773C88.6211 81.9492 87.8516 81.668 86.75 81.4336C85.6562 81.1992 84.7852 80.918 84.1367 80.5898C83.4961 80.2617 83.0195 79.8711 82.707 79.418C82.4023 78.9648 82.25 78.4258 82.25 77.8008C82.25 76.7617 82.6875 75.8828 83.5625 75.1641C84.4453 74.4453 85.5703 74.0859 86.9375 74.0859C88.375 74.0859 89.5391 74.457 90.4297 75.1992C91.3281 75.9414 91.7773 76.8906 91.7773 78.0469H89.5977C89.5977 77.4531 89.3438 76.9414 88.8359 76.5117C88.3359 76.082 87.7031 75.8672 86.9375 75.8672C86.1484 75.8672 85.5312 76.0391 85.0859 76.3828C84.6406 76.7266 84.418 77.1758 84.418 77.7305C84.418 78.2539 84.625 78.6484 85.0391 78.9141C85.4531 79.1797 86.1992 79.4336 87.2773 79.6758C88.3633 79.918 89.2422 80.207 89.9141 80.543C90.5859 80.8789 91.082 81.2852 91.4023 81.7617C91.7305 82.2305 91.8945 82.8047 91.8945 83.4844C91.8945 84.6172 91.4414 85.5273 90.5352 86.2148C89.6289 86.8945 88.4531 87.2344 87.0078 87.2344C85.9922 87.2344 85.0938 87.0547 84.3125 86.6953C83.5312 86.3359 82.918 85.8359 82.4727 85.1953C82.0352 84.5469 81.8164 83.8477 81.8164 83.0977H83.9844C84.0234 83.8242 84.3125 84.4023 84.8516 84.832C85.3984 85.2539 86.1172 85.4648 87.0078 85.4648C87.8281 85.4648 88.4844 85.3008 88.9766 84.9727C89.4766 84.6367 89.7266 84.1914 89.7266 83.6367Z" fill="#18191B"/>
<path d="M97.6602 71.25V74.3203H100.027V75.9961H97.6602V83.8594C97.6602 84.3672 97.7656 84.75 97.9766 85.0078C98.1875 85.2578 98.5469 85.3828 99.0547 85.3828C99.3047 85.3828 99.6484 85.3359 100.086 85.2422V87C99.5156 87.1562 98.9609 87.2344 98.4219 87.2344C97.4531 87.2344 96.7227 86.9414 96.2305 86.3555C95.7383 85.7695 95.4922 84.9375 95.4922 83.8594V75.9961H93.1836V74.3203H95.4922V71.25H97.6602Z" fill="#18191B"/>
<path d="M109.953 83.6367C109.953 83.0508 109.73 82.5977 109.285 82.2773C108.848 81.9492 108.078 81.668 106.977 81.4336C105.883 81.1992 105.012 80.918 104.363 80.5898C103.723 80.2617 103.246 79.8711 102.934 79.418C102.629 78.9648 102.477 78.4258 102.477 77.8008C102.477 76.7617 102.914 75.8828 103.789 75.1641C104.672 74.4453 105.797 74.0859 107.164 74.0859C108.602 74.0859 109.766 74.457 110.656 75.1992C111.555 75.9414 112.004 76.8906 112.004 78.0469H109.824C109.824 77.4531 109.57 76.9414 109.062 76.5117C108.562 76.082 107.93 75.8672 107.164 75.8672C106.375 75.8672 105.758 76.0391 105.312 76.3828C104.867 76.7266 104.645 77.1758 104.645 77.7305C104.645 78.2539 104.852 78.6484 105.266 78.9141C105.68 79.1797 106.426 79.4336 107.504 79.6758C108.59 79.918 109.469 80.207 110.141 80.543C110.812 80.8789 111.309 81.2852 111.629 81.7617C111.957 82.2305 112.121 82.8047 112.121 83.4844C112.121 84.6172 111.668 85.5273 110.762 86.2148C109.855 86.8945 108.68 87.2344 107.234 87.2344C106.219 87.2344 105.32 87.0547 104.539 86.6953C103.758 86.3359 103.145 85.8359 102.699 85.1953C102.262 84.5469 102.043 83.8477 102.043 83.0977H104.211C104.25 83.8242 104.539 84.4023 105.078 84.832C105.625 85.2539 106.344 85.4648 107.234 85.4648C108.055 85.4648 108.711 85.3008 109.203 84.9727C109.703 84.6367 109.953 84.1914 109.953 83.6367Z" fill="#18191B"/>
<path d="M2.78125 43.0625L9.8125 42.1875V8.09375L2.65625 8.21875V4.375L15.9688 1.5V42.1875L22.9688 43.0625V47H2.78125V43.0625Z" fill="#18191B"/>
<path d="M50.9688 10.5L50.375 6.96875H36.7812L35.3125 19.75C36.25 19.0417 37.3021 18.4583 38.4688 18C39.6562 17.5208 41.0208 17.2604 42.5625 17.2188C46.75 17.1771 50.0417 18.5417 52.4375 21.3125C54.8542 24.0833 56.0625 27.8125 56.0625 32.5C56.0625 37.0625 54.8333 40.7292 52.375 43.5C49.9375 46.2708 46.375 47.6562 41.6875 47.6562C37.8333 47.6562 34.625 46.6042 32.0625 44.5C29.5208 42.3958 28.3021 39.3021 28.4062 35.2188L28.4688 35.0312H34.0312C34.0312 37.4896 34.7396 39.4062 36.1562 40.7812C37.5938 42.1562 39.4375 42.8438 41.6875 42.8438C44.2917 42.8438 46.3125 41.9271 47.75 40.0938C49.1875 38.2604 49.9062 35.75 49.9062 32.5625C49.9062 29.625 49.1771 27.2292 47.7188 25.375C46.2812 23.5 44.2812 22.5625 41.7188 22.5625C39.3021 22.5625 37.5417 22.9271 36.4375 23.6562C35.3542 24.3854 34.5625 25.5 34.0625 27L28.9375 26.4688L31.5625 1.5H55.5938V10.5H50.9688Z" fill="#18191B"/>
<path d="M91.9375 29.6562C91.9375 35.4688 90.6458 39.9271 88.0625 43.0312C85.4792 46.1146 81.9479 47.6562 77.4688 47.6562C73.0104 47.6562 69.4792 46.1042 66.875 43C64.2708 39.8958 62.9688 35.4479 62.9688 29.6562V18.875C62.9688 13.0833 64.2604 8.63542 66.8438 5.53125C69.4271 2.40625 72.9479 0.84375 77.4062 0.84375C81.8854 0.84375 85.4271 2.40625 88.0312 5.53125C90.6354 8.63542 91.9375 13.0833 91.9375 18.875V29.6562ZM85.7812 17.5625C85.7812 13.625 85.0625 10.6667 83.625 8.6875C82.2083 6.6875 80.1354 5.6875 77.4062 5.6875C74.7188 5.6875 72.6667 6.6875 71.25 8.6875C69.8333 10.6667 69.125 13.625 69.125 17.5625V30.9062C69.125 34.8438 69.8438 37.8229 71.2812 39.8438C72.7188 41.8438 74.7812 42.8438 77.4688 42.8438C80.1979 42.8438 82.2604 41.8438 83.6562 39.8438C85.0729 37.8438 85.7812 34.8646 85.7812 30.9062V17.5625Z" fill="#18191B"/>
<path d="M116.656 22.5312H129.156V28.0938H116.656V42.4375H110.5V28.0938H97.9688V22.5312H110.5V9.3125H116.656V22.5312Z" fill="#18191B"/>
</svg>

<svg width="189" height="93" fill="none" xmlns="http://www.w3.org/2000/svg"><path d="M8.023 83.637c0-.586-.222-1.04-.668-1.36-.437-.328-1.207-.609-2.308-.843-1.094-.235-1.965-.516-2.613-.844-.641-.328-1.118-.719-1.43-1.172-.305-.453-.457-.992-.457-1.617 0-1.04.437-1.918 1.312-2.637.883-.719 2.008-1.078 3.375-1.078 1.438 0 2.602.371 3.493 1.113.898.742 1.347 1.692 1.347 2.848h-2.18c0-.594-.253-1.106-.761-1.535-.5-.43-1.133-.645-1.899-.645-.789 0-1.406.172-1.851.516-.446.344-.668.793-.668 1.348 0 .523.207.917.62 1.183.415.266 1.161.52 2.24.762 1.085.242 1.964.531 2.636.867.672.336 1.168.742 1.488 1.219.328.469.492 1.043.492 1.722 0 1.133-.453 2.043-1.359 2.73-.906.68-2.082 1.02-3.527 1.02-1.016 0-1.914-.18-2.696-.539-.78-.36-1.394-.86-1.84-1.5a3.679 3.679 0 0 1-.656-2.097h2.168c.04.726.328 1.304.867 1.734.547.422 1.266.633 2.157.633.82 0 1.476-.164 1.968-.492.5-.336.75-.782.75-1.336zM23.727 80.8c0 1.93-.442 3.484-1.325 4.664-.883 1.18-2.078 1.77-3.586 1.77-1.539 0-2.75-.489-3.632-1.466v6.106h-2.168V74.32h1.98l.106 1.407c.882-1.094 2.109-1.641 3.68-1.641 1.523 0 2.726.574 3.609 1.723.89 1.148 1.336 2.746 1.336 4.793v.199zm-2.168-.246c0-1.43-.305-2.559-.915-3.387-.609-.828-1.445-1.242-2.507-1.242-1.313 0-2.297.582-2.953 1.746v6.059c.648 1.156 1.64 1.734 2.976 1.734 1.04 0 1.863-.41 2.473-1.23.617-.829.926-2.055.926-3.68zm10.195 6.68c-1.719 0-3.117-.563-4.195-1.688-1.079-1.133-1.618-2.645-1.618-4.535v-.399c0-1.257.239-2.379.715-3.363.485-.992 1.157-1.766 2.016-2.32a5.07 5.07 0 0 1 2.812-.844c1.649 0 2.93.543 3.844 1.629.914 1.086 1.371 2.64 1.371 4.664v.902h-8.59c.032 1.25.395 2.262 1.09 3.035.703.766 1.594 1.149 2.672 1.149.766 0 1.414-.156 1.945-.469a4.887 4.887 0 0 0 1.395-1.242l1.324 1.031c-1.062 1.633-2.656 2.45-4.781 2.45zm-.27-11.368c-.875 0-1.609.32-2.203.961-.593.633-.96 1.524-1.101 2.672h6.351v-.164c-.062-1.102-.36-1.953-.89-2.555-.532-.61-1.25-.914-2.157-.914zm12.82 9.598c.774 0 1.45-.234 2.028-.703.578-.469.898-1.055.961-1.758h2.05c-.038.727-.288 1.418-.75 2.074-.46.656-1.077 1.18-1.85 1.57a5.29 5.29 0 0 1-2.438.586c-1.727 0-3.102-.574-4.125-1.722-1.016-1.156-1.524-2.735-1.524-4.735v-.363c0-1.234.227-2.332.68-3.293.453-.96 1.102-1.707 1.945-2.238.852-.531 1.856-.797 3.012-.797 1.422 0 2.602.426 3.539 1.277.945.852 1.45 1.957 1.512 3.317h-2.051c-.063-.82-.375-1.493-.938-2.016-.554-.531-1.242-.797-2.062-.797-1.102 0-1.957.399-2.566 1.195-.602.79-.903 1.934-.903 3.434v.41c0 1.461.301 2.586.903 3.375.601.79 1.46 1.184 2.578 1.184zM54.138 87h-2.168V74.32h2.168V87zm-2.344-16.043c0-.351.105-.648.316-.89.22-.243.54-.364.961-.364.422 0 .742.121.961.363.219.243.328.54.328.891 0 .352-.109.645-.328.879-.218.234-.539.352-.96.352-.423 0-.743-.118-.962-.352-.21-.234-.316-.527-.316-.879zM65.445 87c-.125-.25-.226-.695-.304-1.336-1.008 1.047-2.211 1.57-3.61 1.57-1.25 0-2.277-.351-3.082-1.054-.797-.711-1.195-1.61-1.195-2.696 0-1.32.5-2.343 1.5-3.07 1.008-.734 2.422-1.102 4.242-1.102h2.11v-.996c0-.757-.227-1.359-.68-1.804-.453-.453-1.121-.68-2.004-.68-.774 0-1.422.195-1.945.586-.524.39-.786.863-.786 1.418h-2.18c0-.633.223-1.242.669-1.828.453-.594 1.062-1.063 1.828-1.406.773-.344 1.62-.516 2.543-.516 1.46 0 2.605.367 3.433 1.102.829.726 1.258 1.73 1.29 3.011v5.836c0 1.164.148 2.09.445 2.778V87h-2.274zm-3.597-1.652a3.81 3.81 0 0 0 1.933-.528c.61-.351 1.051-.808 1.325-1.37v-2.602h-1.7c-2.656 0-3.984.777-3.984 2.332 0 .68.226 1.21.68 1.593.453.383 1.035.575 1.746.575zM73.028 87h-2.169V69h2.168v18zm5.835 0h-2.168V74.32h2.168V87zM76.52 70.957c0-.351.106-.648.317-.89.219-.243.539-.364.96-.364.423 0 .743.121.962.363.219.243.328.54.328.891 0 .352-.11.645-.328.879-.219.234-.54.352-.961.352-.422 0-.742-.118-.961-.352-.211-.234-.317-.527-.317-.879zm13.208 12.68c0-.586-.223-1.04-.668-1.36-.438-.328-1.207-.609-2.309-.843-1.094-.235-1.965-.516-2.613-.844-.64-.328-1.118-.719-1.43-1.172-.305-.453-.457-.992-.457-1.617 0-1.04.438-1.918 1.313-2.637.882-.719 2.007-1.078 3.374-1.078 1.438 0 2.602.371 3.493 1.113.898.742 1.347 1.692 1.347 2.848h-2.18c0-.594-.253-1.106-.761-1.535-.5-.43-1.133-.645-1.898-.645-.79 0-1.407.172-1.852.516-.445.344-.668.793-.668 1.348 0 .523.207.917.621 1.183.414.266 1.16.52 2.238.762 1.086.242 1.965.531 2.637.867.672.336 1.168.742 1.488 1.219.329.469.492 1.043.492 1.722 0 1.133-.453 2.043-1.359 2.73-.906.68-2.082 1.02-3.527 1.02-1.016 0-1.914-.18-2.695-.539-.782-.36-1.395-.86-1.84-1.5a3.679 3.679 0 0 1-.657-2.097h2.168c.04.726.329 1.304.868 1.734.546.422 1.265.633 2.156.633.82 0 1.476-.164 1.969-.492.5-.336.75-.782.75-1.336zM97.66 71.25v3.07h2.367v1.676H97.66v7.863c0 .508.106.891.317 1.149.21.25.57.375 1.078.375.25 0 .593-.047 1.031-.14V87a6.288 6.288 0 0 1-1.664.234c-.969 0-1.7-.293-2.191-.878-.493-.587-.739-1.418-.739-2.497v-7.863h-2.308V74.32h2.308v-3.07h2.168zm12.293 12.387c0-.586-.223-1.04-.668-1.36-.437-.328-1.207-.609-2.308-.843-1.094-.235-1.965-.516-2.614-.844-.64-.328-1.117-.719-1.429-1.172-.305-.453-.457-.992-.457-1.617 0-1.04.437-1.918 1.312-2.637.883-.719 2.008-1.078 3.375-1.078 1.438 0 2.602.371 3.492 1.113.899.742 1.348 1.692 1.348 2.848h-2.18c0-.594-.254-1.106-.762-1.535-.5-.43-1.132-.645-1.898-.645-.789 0-1.406.172-1.852.516a1.623 1.623 0 0 0-.667 1.348c0 .523.207.917.621 1.183.414.266 1.16.52 2.238.762 1.086.242 1.965.531 2.637.867.671.336 1.168.742 1.488 1.219.328.469.492 1.043.492 1.722 0 1.133-.453 2.043-1.359 2.73-.907.68-2.082 1.02-3.528 1.02-1.015 0-1.914-.18-2.695-.539-.781-.36-1.394-.86-1.84-1.5a3.682 3.682 0 0 1-.656-2.097h2.168c.039.726.328 1.304.867 1.734.547.422 1.266.633 2.156.633.821 0 1.477-.164 1.969-.492.5-.336.75-.782.75-1.336zM2.781 43.062l7.031-.874V8.093l-7.156.125V4.375L15.97 1.5v40.688l7 .874V47H2.78v-3.938zM50.97 10.5l-.594-3.531H36.781L35.313 19.75A13.223 13.223 0 0 1 38.468 18c1.187-.48 2.552-.74 4.093-.781 4.188-.042 7.48 1.323 9.876 4.093 2.416 2.771 3.624 6.5 3.624 11.188 0 4.563-1.229 8.23-3.687 11-2.438 2.77-6 4.156-10.688 4.156-3.854 0-7.062-1.052-9.624-3.156-2.542-2.104-3.76-5.198-3.657-9.281l.063-.188h5.562c0 2.459.709 4.375 2.125 5.75 1.438 1.375 3.282 2.063 5.532 2.063 2.604 0 4.624-.917 6.062-2.75 1.438-1.834 2.156-4.344 2.156-7.532 0-2.937-.729-5.333-2.187-7.187-1.438-1.875-3.438-2.813-6-2.813-2.417 0-4.177.365-5.282 1.094-1.083.73-1.874 1.844-2.374 3.344l-5.126-.531L31.563 1.5h24.032v9h-4.625zm40.968 19.156c0 5.813-1.291 10.271-3.874 13.375-2.584 3.084-6.115 4.625-10.594 4.625-4.459 0-7.99-1.552-10.594-4.656-2.604-3.104-3.906-7.552-3.906-13.344V18.875c0-5.792 1.291-10.24 3.875-13.344C69.427 2.406 72.948.844 77.406.844c4.48 0 8.021 1.562 10.625 4.687 2.604 3.104 3.906 7.552 3.906 13.344v10.781zm-6.156-12.093c0-3.938-.719-6.896-2.156-8.875-1.417-2-3.49-3-6.219-3-2.687 0-4.74 1-6.156 3-1.417 1.979-2.125 4.937-2.125 8.874v13.344c0 3.938.719 6.917 2.156 8.938 1.438 2 3.5 3 6.188 3 2.729 0 4.791-1 6.187-3 1.417-2 2.125-4.98 2.125-8.938V17.563zm30.875 4.968h12.5v5.563h-12.5v14.343H110.5V28.095H97.969V22.53H110.5V9.313h6.156V22.53z" fill="#18191B"/></svg>
